X: 40656
T: Top Of The Hill, The
R: jig
M: 6/8
K: Adorian
|:ABc e2A|g2A e2A|ABc e2A|g2[eA] dBG|
ABc eAA|gAA eAA|BGB gfe|dge dBG:|
|:gAg gA=f|ef^g a3|aAa gAe|dge dBG|
gAg gA=f|ef^g a3|aAa Age|dge dBG:|

